; generated by PrusaSlicer 2.5.2+win64 on 2023-05-25 at 09:34:02 UTC


;
;

;
;
; 

; external perimeters extrusion width = 0.45mm
; perimeters extrusion width = 0.45mm
; infill extrusion width = 0.45mm
; solid infill extrusion width = 0.45mm
; top infill extrusion width = 0.40mm
; first layer extrusion width = 0.42mm

M73 P0 R17
M201 X2500 Y2500 Z400 E5000 ; sets maximum accelerations, mm/sec^2
M203 X180 Y180 Z12 E80 ; sets maximum feedrates, mm / sec
M204 P2000 R1250 T2500 ; sets acceleration (P, T) and retract acceleration (R), mm/sec^2
M205 X8.00 Y8.00 Z2.00 E10.00 ; sets the jerk limits, mm/sec
M205 S0 T0 ; sets the minimum extruding and travel feed rate, mm/sec
M107
;TYPE:Custom
M862.3 P "MINI" ; printer model check
G90 ; use absolute coordinates
M83 ; extruder relative mode
M104 S170 ; set extruder temp for bed leveling
M140 S60 ; set bed temp
M109 R170 ; wait for bed leveling temp
M190 S60 ; wait for bed temp
M204 T1250 ; set travel acceleration
G28 ; home all without mesh bed level
G29 ; mesh bed leveling 
M204 T2500 ; restore travel acceleration
M104 S215 ; set extruder temp
G92 E0
G1 Y-2 X179 F2400
G1 Z3 F720
M109 S215 ; wait for extruder temp

; intro line
G1 X170 F1000
G1 Z0.2 F720
G1 X110 E8 F900
G1 X40 E10 F700
G92 E0

M221 S95 ; set flow
G21 ; set units to millimeters
G90 ; use absolute coordinates
M83 ; use relative distances for extrusion
M900 K0.2 ; Filament gcode LA 1.5
; ; Filament gcode LA 1.0
M107
;LAYER_CHANGE
;Z:0.2
;HEIGHT:0.2
;BEFORE_LAYER_CHANGE
G92 E0.0
;0.2


G1 E-3.2 F4200
M73 P1 R17
G1 Z.2 F720
;AFTER_LAYER_CHANGE
;0.2
G1 Z.4
G1 X63.198 Y86.334 F9000
G1 Z.2 F720
G1 E3.2 F2400
M204 P600
;TYPE:Skirt/Brim
;WIDTH:0.42
G1 F1200
G1 X87.046 Y70.714 E.89385
G1 X88.348 Y70.326 E.04262
G1 X98.895 Y70.326 E.33069
G1 X100.029 Y70.614 E.03669
G1 X116.634 Y79.628 E.5924
G1 X117.596 Y80.596 E.04278
G1 X117.877 Y81.717 E.03625
G1 X117.877 Y98.059 E.51239
G1 X117.485 Y99.366 E.04278
G1 X116.656 Y100.136 E.0355
G1 X100.051 Y109.374 E.59579
G1 X98.895 Y109.674 E.03743
G1 X88.348 Y109.674 E.33069
M73 P2 R17
G1 X87.033 Y109.277 E.04308
G1 X63.185 Y93.434 E.8977
G1 X62.313 Y92.385 E.04278
G1 X62.123 Y91.454 E.02978
G1 X62.123 Y88.323 E.09817
G1 X62.515 Y87.016 E.04278
G1 X63.155 Y86.377 E.02837
M204 P1000
; printing object Lego-Axolotl.stl id:0 copy 0
G1 E-2.24 F4200
;WIPE_START
G1 F7200
G1 X64.531 Y85.475 E-.912
;WIPE_END
G1 E-.048 F4200
G1 Z.4 F720
G1 X107.896 Y82.443 F9000
G1 Z.2 F720
G1 E3.2 F2400
M204 P600
;TYPE:Perimeter
;WIDTH:0.360941
G1 F1200
G1 X108.235 Y82.205 E.01097
;WIDTH:0.362684
G1 X108.279 Y82.11 E.00279
;WIDTH:0.397057
G1 X108.295 Y81.933 E.00523
;WIDTH:0.43143
G1 X108.312 Y81.756 E.00574
G1 X108.411 Y81.981 E.00793
;WIDTH:0.396186
G1 X108.511 Y82.205 E.00721
;WIDTH:0.360941
G1 X108.922 Y82.443 E.01257
G1 X107.956 Y82.443 E.02556
M204 P1000
G1 E-2.24 F4200
;WIPE_START
G1 F7200
G1 X108.235 Y82.205 E-.20349
G1 X108.279 Y82.11 E-.0582
G1 X108.295 Y81.933 E-.09839
G1 X108.312 Y81.756 E-.09839
G1 X108.411 Y81.981 E-.13611
G1 X108.511 Y82.205 E-.13611
G1 X108.794 Y82.369 E-.1813
;WIPE_END
G1 E-.048 F4200
G1 Z.4 F720
G1 X99.808 Y76.054 F9000
G1 Z.2 F720
G1 E3.2 F2400
M204 P600
;WIDTH:0.487381
G1 F1200
G1 X98.674 Y76.054 E.04193
G1 X98.464 Y76.113 E.00803
;WIDTH:0.447123
G1 X98.198 Y76.347 E.01189
;WIDTH:0.466947
G1 X98.145 Y76.449 E.00407
;WIDTH:0.513895
G1 X98.091 Y76.551 E.00452
;WIDTH:0.560842
G1 X98.038 Y76.654 E.00497
G1 X97.984 Y76.551 E.00497
;WIDTH:0.513895
G1 X97.93 Y76.449 E.00452
;WIDTH:0.466947
G1 X97.877 Y76.347 E.00407
;WIDTH:0.419999
G1 X97.748 Y76.206 E.00598
;WIDTH:0.45369
G1 X97.575 Y76.13 E.00646
;WIDTH:0.487381
G1 X97.401 Y76.054 E.00699
G1 X96.268 Y76.054 E.0419
G1 X96.268 Y75.61 E.01643
G1 X97.401 Y75.61 E.0419
G1 X97.575 Y75.534 E.00699
;WIDTH:0.45369
G1 X97.748 Y75.458 E.00646
;WIDTH:0.468566
G1 X97.844 Y75.327 E.00575
;WIDTH:0.517133
G1 X97.941 Y75.197 E.0064
;WIDTH:0.5657
G1 X98.038 Y75.066 E.00706
G1 X98.091 Y75.15 E.00432
;WIDTH:0.517133
G1 X98.145 Y75.234 E.00392
;WIDTH:0.468566
G1 X98.198 Y75.317 E.00352
;WIDTH:0.447123
G1 X98.464 Y75.551 E.01189
;WIDTH:0.487381
G1 X98.674 Y75.61 E.00803
G1 X99.808 Y75.61 E.04193
G1 X99.808 Y75.994 E.01421
M204 P1000
G1 E-2.24 F4200
;WIPE_START
G1 F7200
G1 X98.674 Y76.054 E-.62969
G1 X98.464 Y76.113 E-.12042
G1 X98.245 Y76.306 E-.16189
;WIPE_END
G1 E-.048 F4200
G1 Z.4 F720
G1 X90.974 Y76.054 F9000
G1 Z.2 F720
G1 E3.2 F2400
M204 P600
G1 F1200
G1 X89.861 Y76.054 E.04116
G1 X89.649 Y76.115 E.00814
;WIDTH:0.446286
G1 X89.383 Y76.35 E.01189
;WIDTH:0.45996
G1 X89.341 Y76.426 E.00301
;WIDTH:0.499921
G1 X89.299 Y76.502 E.0033
;WIDTH:0.539882
G1 X89.257 Y76.578 E.00359
;WIDTH:0.579842
G1 X89.215 Y76.654 E.00388
G1 X89.173 Y76.578 E.00388
;WIDTH:0.539882
G1 X89.131 Y76.502 E.00359
;WIDTH:0.499921
G1 X89.089 Y76.426 E.0033
;WIDTH:0.45996
G1 X89.047 Y76.35 E.00301
;WIDTH:0.419999
G1 X88.919 Y76.209 E.00597
;WIDTH:0.45369
G1 X88.744 Y76.132 E.00653
;WIDTH:0.487381
G1 X88.569 Y76.054 E.00706
G1 X87.455 Y76.054 E.0412
G1 X87.455 Y75.61 E.01643
G1 X88.569 Y75.61 E.0412
G1 X88.744 Y75.532 E.00706
;WIDTH:0.45369
G1 X88.919 Y75.455 E.00653
;WIDTH:0.461193
G1 X88.993 Y75.358 E.00425
;WIDTH:0.502386
G1 X89.067 Y75.261 E.00466
;WIDTH:0.543579
G1 X89.141 Y75.164 E.00508
;WIDTH:0.584772
G1 X89.215 Y75.067 E.0055
G1 X89.257 Y75.129 E.00337
;WIDTH:0.543579
G1 X89.299 Y75.191 E.00311
;WIDTH:0.502386
G1 X89.341 Y75.252 E.00286
;WIDTH:0.461193
G1 X89.383 Y75.314 E.0026
;WIDTH:0.446286
G1 X89.649 Y75.549 E.01189
;WIDTH:0.487381
G1 X89.861 Y75.61 E.00814
G1 X90.974 Y75.61 E.04116
G1 X90.974 Y75.994 E.01421
M204 P1000
G1 E-2.24 F4200
;WIPE_START
G1 F7200
G1 X89.861 Y76.054 E-.61807
G1 X89.649 Y76.115 E-.122
G1 X89.417 Y76.32 E-.17193
;WIPE_END
G1 E-.048 F4200
G1 Z.4 F720
G1 X83.427 Y81.859 F9000
G1 Z.2 F720
G1 E3.2 F2400
M204 P600
;TYPE:External perimeter
;WIDTH:0.38292
G1 F1200
G1 X83.519 Y81.86 E.00259
M204 P1000
G1 E-2.24 F4200
;WIPE_START
G1 F7200
G1 X83.427 Y81.859 E-.05076
;WIPE_END
G1 E-.90924 F4200
G1 Z.4 F720
G1 X82.761 Y90.769 F9000
G1 Z.2 F720
G1 E3.2 F2400
M204 P600
;TYPE:Perimeter
;WIDTH:0.419999
G1 F1200
G1 X82.345 Y90.724 E.01315
G1 X80.077 Y90.714 E.07109
G1 X79.721 Y90.667 E.01125
G1 X65.287 Y90.667 E.45258
G1 X65.287 Y89.11 E.04881
G1 X79.721 Y89.11 E.45258
G1 X79.836 Y89.087 E.00367
G1 X81.907 Y89.085 E.06493
G1 X82.762 Y89.026 E.02688
G1 X82.666 Y89.67 E.02042
G1 X82.673 Y90.22 E.01725
G1 X82.752 Y90.71 E.01556
M204 P1000
G1 X83.19 Y91.254 F9000
M204 P600
;TYPE:External perimeter
G1 F1200
G1 X82.841 Y91.158 E.01136
G1 X82.343 Y91.101 E.0157
G1 X79.801 Y91.09 E.0797
G1 X79.721 Y91.044 E.00289
G1 X64.91 Y91.044 E.4644
G1 X64.91 Y88.733 E.07246
G1 X79.721 Y88.733 E.4644
G1 X79.772 Y88.71 E.00175
G1 X81.881 Y88.709 E.06611
G1 X82.832 Y88.643 E.02989
G1 X83.19 Y88.546 E.01163
G1 X83.043 Y89.793 E.03938
G1 X83.077 Y90.358 E.01774
G1 X83.182 Y91.195 E.02643
M204 P1000
G1 X82.906 Y91.029 F9000
G1 E-2.24 F4200
;WIPE_START
G1 F7200
G1 X82.841 Y91.158 E-.19047
G1 X82.343 Y91.101 E-.27757
G1 X81.542 Y91.098 E-.44395
;WIPE_END
G1 E-.048 F4200
G1 Z.4 F720
G1 X83.536 Y97.927 F9000
G1 Z.2 F720
G1 E3.2 F2400
M204 P600
;WIDTH:0.38292
G1 F1200
G1 X83.416 Y97.929 E.00341
M204 P1000
G1 E-2.24 F4200
;WIPE_START
G1 F7200
G1 X83.536 Y97.927 E-.0668
;WIPE_END
G1 E-.8932 F4200
G1 Z.4 F720
G1 X90.968 Y103.927 F9000
G1 Z.2 F720
M73 P3 R17
G1 E3.2 F2400
M204 P600
;TYPE:Perimeter
;WIDTH:0.499881
G1 F1200
G1 X90.968 Y104.384 E.01736
G1 X89.861 Y104.384 E.04208
G1 X89.651 Y104.448 E.00833
;WIDTH:0.45119
G1 X89.385 Y104.683 E.01204
;WIDTH:0.45996
G1 X89.343 Y104.759 E.00304
;WIDTH:0.499921
G1 X89.3 Y104.836 E.00334
;WIDTH:0.539882
G1 X89.258 Y104.913 E.00363
;WIDTH:0.579842
G1 X89.215 Y104.99 E.00392
G1 X89.172 Y104.913 E.00392
;WIDTH:0.539882
G1 X89.13 Y104.836 E.00363
;WIDTH:0.499921
G1 X89.087 Y104.759 E.00334
;WIDTH:0.45996
G1 X89.045 Y104.683 E.00304
;WIDTH:0.419999
G1 X88.916 Y104.542 E.00598
;WIDTH:0.45994
G1 X88.743 Y104.463 E.0066
;WIDTH:0.499881
G1 X88.569 Y104.384 E.00723
G1 X87.461 Y104.384 E.04212
G1 X87.461 Y103.927 E.01736
G1 X88.569 Y103.927 E.04212
G1 X88.743 Y103.848 E.00723
;WIDTH:0.45994
G1 X88.916 Y103.769 E.0066
;WIDTH:0.461193
G1 X88.99 Y103.671 E.00428
;WIDTH:0.502386
G1 X89.065 Y103.573 E.0047
;WIDTH:0.543579
G1 X89.14 Y103.476 E.00512
;WIDTH:0.584772
G1 X89.215 Y103.378 E.00554
G1 X89.258 Y103.441 E.00341
;WIDTH:0.543579
G1 X89.3 Y103.503 E.00315
;WIDTH:0.502386
G1 X89.343 Y103.566 E.00289
;WIDTH:0.461193
G1 X89.385 Y103.628 E.00263
;WIDTH:0.45119
G1 X89.651 Y103.864 E.01204
;WIDTH:0.499881
G1 X89.861 Y103.927 E.00833
G1 X90.908 Y103.927 E.0398
M204 P1000
G1 E-2.24 F4200
;WIPE_START
G1 F7200
G1 X90.968 Y104.384 E-.25541
G1 X89.861 Y104.384 E-.61371
G1 X89.786 Y104.406 E-.04289
;WIPE_END
G1 E-.048 F4200
G1 Z.4 F720
G1 X98.038 Y103.377 F9000
G1 Z.2 F720
G1 E3.2 F2400
M204 P600
;WIDTH:0.5657
G1 F1200
G1 X98.092 Y103.462 E.00438
;WIDTH:0.517133
G1 X98.146 Y103.547 E.00397
;WIDTH:0.468566
G1 X98.201 Y103.632 E.00357
;WIDTH:0.452176
G1 X98.466 Y103.865 E.01204
;WIDTH:0.499881
G1 X98.674 Y103.927 E.00822
G1 X99.802 Y103.927 E.04288
G1 X99.802 Y104.384 E.01736
G1 X98.674 Y104.384 E.04288
G1 X98.466 Y104.446 E.00822
;WIDTH:0.452176
G1 X98.201 Y104.679 E.01204
;WIDTH:0.466947
G1 X98.146 Y104.783 E.00412
;WIDTH:0.513895
G1 X98.092 Y104.886 E.00457
;WIDTH:0.560842
G1 X98.038 Y104.99 E.00503
G1 X97.983 Y104.886 E.00503
;WIDTH:0.513895
G1 X97.929 Y104.783 E.00457
;WIDTH:0.466947
G1 X97.874 Y104.679 E.00412
;WIDTH:0.419999
G1 X97.744 Y104.54 E.00598
;WIDTH:0.45994
G1 X97.573 Y104.462 E.00653
;WIDTH:0.499881
G1 X97.401 Y104.384 E.00716
G1 X96.274 Y104.384 E.04284
G1 X96.274 Y103.927 E.01736
G1 X97.401 Y103.927 E.04284
G1 X97.573 Y103.849 E.00716
;WIDTH:0.45994
G1 X97.744 Y103.771 E.00653
;WIDTH:0.468566
G1 X97.842 Y103.64 E.00579
;WIDTH:0.517133
G1 X97.94 Y103.508 E.00646
;WIDTH:0.5657
G1 X98.002 Y103.425 E.00451
M204 P1000
G1 E-2.24 F4200
;WIPE_START
G1 F7200
G1 X98.092 Y103.462 E-.05393
G1 X98.146 Y103.547 E-.05583
G1 X98.201 Y103.632 E-.05583
G1 X98.466 Y103.865 E-.19601
G1 X98.674 Y103.927 E-.11988
G1 X99.45 Y103.927 E-.43052
;WIPE_END
G1 E-.048 F4200
G1 Z.4 F720
G1 X107.85 Y97.353 F9000
G1 Z.2 F720
G1 E3.2 F2400
M204 P600
;WIDTH:0.353133
G1 F1200
G1 X108.829 Y97.353 E.02527
G1 X108.509 Y97.582 E.01016
;WIDTH:0.395812
G1 X108.424 Y97.755 E.00565
;WIDTH:0.43849
G1 X108.338 Y97.927 E.00633
G1 X108.287 Y97.755 E.00591
;WIDTH:0.395812
G1 X108.237 Y97.582 E.00527
;WIDTH:0.353133
G1 X107.901 Y97.383 E.01006
M204 P1000
G1 E-2.24 F4200
;WIPE_START
G1 F7200
G1 X108.829 Y97.353 E-.51448
G1 X108.509 Y97.582 E-.21831
G1 X108.424 Y97.755 E-.10663
G1 X108.365 Y97.872 E-.07258
;WIPE_END
G1 E-.048 F4200
G1 Z.4 F720
G1 X97.401 Y97.388 F9000
G1 Z.2 F720
G1 E3.2 F2400
M204 P600
;TYPE:External perimeter
;WIDTH:0.42146
G1 F1200
G1 X95.899 Y97.388 E.04731
;WIDTH:0.464793
G1 X95.825 Y97.41 E.0027
;WIDTH:0.508126
G1 X95.751 Y97.432 E.00298
;WIDTH:0.55146
G1 X95.677 Y97.453 E.00326
G1 X95.644 Y97.583 E.00567
G1 X91.623 Y97.583 E.17002
G1 X91.585 Y97.453 E.00573
G1 X91.511 Y97.432 E.00326
;WIDTH:0.508127
G1 X91.437 Y97.41 E.00298
;WIDTH:0.464794
G1 X91.363 Y97.388 E.0027
;WIDTH:0.42146
G1 X89.861 Y97.388 E.04731
;WIDTH:0.424328
G1 X89.828 Y97.39 E.00105
G1 X89.672 Y97.578 E.00774
;WIDTH:0.419999
G1 X89.672 Y103.321 E.1801
G1 X89.745 Y103.471 E.00521
G1 X89.861 Y103.51 E.00382
G1 X91.385 Y103.51 E.0478
G1 X91.385 Y104.801 E.04048
G1 X89.861 Y104.801 E.0478
G1 X89.745 Y104.84 E.00382
G1 X89.672 Y104.99 E.00521
G1 X89.672 Y106.887 E.05949
G1 X88.758 Y106.887 E.02866
G1 X88.758 Y104.99 E.05949
G1 X88.685 Y104.84 E.00521
G1 X88.569 Y104.801 E.00382
G1 X87.044 Y104.801 E.04783
G1 X87.044 Y103.51 E.04048
G1 X88.569 Y103.51 E.04783
G1 X88.685 Y103.471 E.00382
G1 X88.758 Y103.321 E.00521
G1 X88.758 Y97.578 E.1801
;WIDTH:0.42146
G1 X88.569 Y97.388 E.00841
G1 X87.066 Y97.388 E.04734
;WIDTH:0.465222
G1 X86.991 Y97.41 E.00272
;WIDTH:0.508984
G1 X86.917 Y97.432 E.003
;WIDTH:0.552746
G1 X86.843 Y97.454 E.00328
G1 X86.811 Y97.578 E.00541
G1 X86.621 Y97.585 E.00804
;WIDTH:0.556437
G1 X85.285 Y97.591 E.05705
;WIDTH:0.568743
G1 X85.046 Y97.608 E.01049
G1 X84.933 Y97.646 E.00522
;WIDTH:0.519162
G1 X84.82 Y97.685 E.00473
;WIDTH:0.469581
G1 X84.706 Y97.724 E.00424
;WIDTH:0.419999
G1 X84.206 Y97.834 E.01608
G1 X83.536 Y97.927 E.02118
;WIDTH:0.397071
G1 X83.649 Y97.858 E.00389
;WIDTH:0.419999
G1 X83.838 Y97.357 E.0168
;WIDTH:0.440587
G1 X83.91 Y96.32 E.03437
;WIDTH:0.421798
G1 X83.91 Y83.479 E.40452
;WIDTH:0.437999
G1 X83.836 Y82.435 E.03439
;WIDTH:0.419999
G1 X83.662 Y81.937 E.01654
;WIDTH:0.400258
G1 X83.519 Y81.86 E.00483
G1 X83.693 Y81.897 E.0053
;WIDTH:0.419999
G1 X84.261 Y81.946 E.01786
G1 X84.765 Y82.066 E.01626
;WIDTH:0.469445
G1 X84.938 Y82.108 E.00632
;WIDTH:0.518891
G1 X85.112 Y82.15 E.00705
;WIDTH:0.568336
G1 X85.285 Y82.191 E.00779
G1 X86.601 Y82.197 E.0575
;WIDTH:0.564774
G1 X86.78 Y82.198 E.00776
G1 X86.833 Y82.34 E.00658
G1 X86.91 Y82.364 E.00352
;WIDTH:0.517003
G1 X86.988 Y82.388 E.0032
;WIDTH:0.469232
G1 X87.066 Y82.412 E.00288
;WIDTH:0.42146
G1 X88.569 Y82.412 E.04734
;WIDTH:0.424328
G1 X88.602 Y82.41 E.00105
G1 X88.758 Y82.222 E.00774
;WIDTH:0.419999
G1 X88.758 Y76.654 E.17461
G1 X88.686 Y76.505 E.00517
G1 X88.569 Y76.465 E.00386
G1 X87.044 Y76.465 E.04783
G1 X87.044 Y75.199 E.03969
G1 X88.569 Y75.199 E.04783
G1 X88.686 Y75.159 E.00386
G1 X88.758 Y75.01 E.00517
G1 X88.758 Y73.113 E.05949
G1 X89.672 Y73.113 E.02866
G1 X89.672 Y75.01 E.05949
G1 X89.744 Y75.159 E.00517
G1 X89.861 Y75.199 E.00386
G1 X91.385 Y75.199 E.0478
G1 X91.385 Y76.465 E.03969
G1 X89.861 Y76.465 E.0478
G1 X89.744 Y76.505 E.00386
G1 X89.672 Y76.654 E.00517
G1 X89.672 Y82.222 E.17461
;WIDTH:0.42146
G1 X89.861 Y82.412 E.00841
G1 X91.363 Y82.412 E.04731
;WIDTH:0.468794
G1 X91.441 Y82.388 E.00286
;WIDTH:0.516127
G1 X91.518 Y82.364 E.00318
;WIDTH:0.563459
G1 X91.595 Y82.341 E.0035
G1 X91.624 Y82.199 E.00627
G1 X95.615 Y82.199 E.17273
G1 X95.667 Y82.341 E.00655
G1 X95.744 Y82.364 E.0035
;WIDTH:0.516126
G1 X95.821 Y82.388 E.00318
;WIDTH:0.468793
G1 X95.899 Y82.412 E.00286
;WIDTH:0.42146
G1 X97.401 Y82.412 E.04731
;WIDTH:0.424328
G1 X97.434 Y82.41 E.00105
G1 X97.59 Y82.222 E.00774
;WIDTH:0.419999
G1 X97.59 Y76.654 E.17461
G1 X97.517 Y76.504 E.00521
G1 X97.401 Y76.465 E.00382
G1 X95.857 Y76.465 E.04843
G1 X95.857 Y75.199 E.03969
G1 X97.401 Y75.199 E.04843
G1 X97.517 Y75.16 E.00382
G1 X97.59 Y75.01 E.00521
G1 X97.59 Y73.113 E.05949
G1 X98.485 Y73.113 E.02806
G1 X98.485 Y75.01 E.05949
G1 X98.558 Y75.16 E.00521
G1 X98.674 Y75.199 E.00382
G1 X100.219 Y75.199 E.04846
G1 X100.219 Y76.465 E.03969
G1 X98.674 Y76.465 E.04846
G1 X98.558 Y76.504 E.00382
G1 X98.485 Y76.654 E.00521
G1 X98.485 Y82.222 E.17461
;WIDTH:0.42146
G1 X98.674 Y82.412 E.00841
G1 X100.176 Y82.412 E.04731
;WIDTH:0.468794
G1 X100.254 Y82.388 E.00286
;WIDTH:0.516127
G1 X100.331 Y82.364 E.00318
;WIDTH:0.563459
G1 X100.408 Y82.341 E.0035
G1 X100.437 Y82.199 E.00627
G1 X105.182 Y82.199 E.20537
G1 X105.234 Y82.341 E.00655
G1 X105.311 Y82.364 E.0035
;WIDTH:0.516126
G1 X105.388 Y82.388 E.00318
;WIDTH:0.468793
G1 X105.466 Y82.412 E.00286
;WIDTH:0.42146
G1 X107.113 Y82.412 E.05187
;WIDTH:0.468794
G1 X107.191 Y82.388 E.00286
;WIDTH:0.516127
G1 X107.268 Y82.364 E.00318
;WIDTH:0.56346
G1 X107.345 Y82.341 E.0035
G1 X107.374 Y82.222 E.00526
;WIDTH:0.567404
G1 X107.815 Y82.197 E.0193
G1 X107.855 Y82.142 E.00294
;WIDTH:0.518269
G1 X107.894 Y82.087 E.00267
;WIDTH:0.469134
G1 X107.934 Y82.032 E.00239
;WIDTH:0.419999
G1 X107.949 Y81.878 E.00485
G1 X106.903 Y78.769 E.10285
G1 X107.592 Y78.422 E.0242
G1 X108.797 Y81.999 E.11834
;WIDTH:0.46782
G1 X108.857 Y82.065 E.00316
;WIDTH:0.51564
G1 X108.916 Y82.132 E.00351
;WIDTH:0.56346
G1 X108.976 Y82.199 E.00387
G1 X114.298 Y82.199 E.23034
G1 X114.429 Y82.175 E.00578
;WIDTH:0.51564
G1 X114.561 Y82.151 E.00525
;WIDTH:0.46782
G1 X114.692 Y82.127 E.00472
;WIDTH:0.419999
G1 X115.09 Y82.127 E.01248
G1 X115.09 Y82.525 E.01248
;WIDTH:0.45382
G1 X115.073 Y82.676 E.00521
;WIDTH:0.48764
G1 X115.056 Y82.828 E.00564
;WIDTH:0.52146
